X: 28315
T: Muddy Doyle's
R: hornpipe
M: 4/4
K: Dmajor
|:D2FA (3DCD FA|(3dcd cd BAGF|E2GB (3E^DE GB|(3efe (3dcB (3ABA (3GFE|
D2FA D2FA|(3ded cd BAGF|GFGA BdAG|1 FDEC D2 (3A,B,C:|2 FDEC D2FA||
|:dAFA dAFA|(3dcd ed cA (3A^GA|eA (3A^GA fA (3A^GA|(3gbg fg edBc|
dAFA dAFA|(3dcd ed cA (3A^GA|(3Bcd cB AGFE|1 D2 DC D2 FA:|2 D2 DC D4||

